actions/22x22-dark/code-typedef.svg

<svg xmlns="http://www.w3.org/2000/svg" viewBox="0 0 22 22">
 <defs id="defs3051">
   <style type="text/css" id="current-color-scheme">
     .ColorScheme-Text {
       color:#f2f2f2;
     }
     </style>
 </defs>
   <path
      style="fill:currentColor;fill-opacity:1;stroke:none"
      d="m5 3c-1.108 0-2 .892-2 2s .892 2 2 2v3h-1.0156248c.0156248 0-.9843752.00609-.9843752 1v6s-.010898 1 .9882815 1h1.0117185s.00115 1 1.0078128 1h12.0067312c-.014544 0 .985456.012.985456-.971845v-1.038563s-.000631-.989592-.996504-.989592h-11.9722457c-.0312503 0-1.0312503-.022862-1.0312503 1h-1v-6h1v2.006592c0-.006592-.0034701.993408.9937283.993408h11.9987187s1.007553 0 1.007553-1v-6.9816121s.030418-1.0183879-.974407-1.0183879h-11.025593c0-1.108-.892-2-2-2z"
      class="ColorScheme-Text" />
</svg>

<svg xmlns="http://www.w3.org/2000/svg" viewBox="0 0 22 22">
  <defs id="defs3051">
    <style type="text/css" id="current-color-scheme">
      .ColorScheme-Text {
        color:#f2f2f2
      }
      </style>
  </defs>
 <path 
     style="fill:currentColor;fill-opacity:1;stroke:none"      
	 class="ColorScheme-Text"
        d="M 5,3 C 3.892,3 3,3.892 3,5 3,6.108 3.892,7 5,7 l 0,3 -1.0156248,0 C 4,10 3,10.00609 3,11 l 0,6 c 0,0 -0.010898,1 0.9882815,1 L 5,18 c 0,0 0.00115,1 1.0078128,1 L 18.014544,19 C 18,19 19,19.012 19,18.028155 l 0,-1.038563 C 19,16.989592 18.999369,16 18.003496,16 L 6.0312503,16 C 6,16 5,15.977138 5,17 l -1,0 0,-6 1,0 0,2.006592 C 5,13 4.9965299,14 5.9937283,14 L 17.992447,14 C 17.992447,14 19,14 19,13 L 19,6.0183879 C 19,6.0183879 19.030418,5 18.025593,5 L 7,5 C 7,3.892 6.108,3 5,3 Z"
     />
</svg>
